X:42
M:3/4
L:1/8
K:C
|:e>d|c4B>A|G4c>B|A2d2B2|c4d>e|a4g2|g>a g2f2|e4 d>e|a4 e>d|c4B2|A4:|

